X:144
T: WOLLT IHR WISSEN
N: K2239B
O: Europa, Mitteleuropa, Deutschland, Vogtland
R: Kinder - Lied, Reigen, Tanz, Nachahmungs - Spiel
M: 3/4
L: 1/8
K: G
DD | G2G2DD | G2G2
BB | c2c2AA | B2B2
GG | A2A2F2 | d4
BB | c2c2AA | B2B2
GG | A2A2F2 | G4

